X: 18
T:Scartaglen
R:jig
C:(Patrick & Don's Slide #1)
Z:Transcribed by Dave Marshall
M:6/8
L:1/8
K:Amix
|:"Am"A2a aga | A2g gfg | A2a aga | efg efg |A2a aga | A2g gfg | agf gfe | ~d3 dcB :|
|:"A"c3 cBc | dfd cec | c3 cec | B2B BAB |c3 cBc | dfd cec | B2B gfe | ~d3 dcB :|
